packages/core/src/svgs/networks/branded/cosmos.svg

<svg width="24" height="24" viewBox="0 0 24 24" fill="none" xmlns="http://www.w3.org/2000/svg">
<g opacity="0.9">
<path fill-rule="evenodd" clip-rule="evenodd" d="M14.4376 7.8982L7.9773 14.3499C7.89398 14.1885 7.81882 14.0202 7.75141 13.8459C7.5258 13.2596 7.413 12.6377 7.413 11.9809C7.413 11.3235 7.5258 10.7017 7.75141 10.1155C7.9773 9.52911 8.29016 9.0203 8.69019 8.58842C9.0902 8.15688 9.571 7.81553 10.1321 7.56415C10.6936 7.31303 11.3096 7.18733 11.9804 7.18733C12.6515 7.18733 13.2709 7.31616 13.8384 7.57406C14.0494 7.66976 14.2491 7.77772 14.4376 7.8982ZM13.8676 16.4357C13.3062 16.6872 12.6901 16.8126 12.0194 16.8126C11.3483 16.8126 10.7289 16.6839 10.1611 16.4261C9.95038 16.3302 9.75063 16.2222 9.56238 16.1015L16.0225 9.65036C16.1058 9.81148 16.181 9.97936 16.2482 10.1541C16.4739 10.7404 16.5868 11.3622 16.5868 12.0194C16.5868 12.6765 16.4739 13.2982 16.2482 13.8847C16.0225 14.4709 15.7096 14.9796 15.3095 15.4112C14.9095 15.8429 14.429 16.1844 13.8676 16.4357ZM14.845 18.4362C15.7096 18.0625 16.458 17.5569 17.0903 16.9187C17.7224 16.2811 18.2125 15.5369 18.5609 14.6866C18.9095 13.8362 19.0836 12.9342 19.0836 11.9809C19.0836 11.0272 18.9095 10.1251 18.5609 9.27455C18.3542 8.77025 18.1 8.30448 17.7981 7.87708L22 3.68103L20.3304 2.01367L16.1156 6.2225C15.7372 5.96486 15.3265 5.74216 14.8836 5.55415C14.0191 5.18698 13.0644 5.00313 12.0194 5.00313C10.974 5.00313 10.0194 5.19011 9.15475 5.5638C8.29016 5.93747 7.54172 6.44311 6.90952 7.08095C6.27732 7.7188 5.78693 8.46305 5.43859 9.31338C5.09025 10.1637 4.91605 11.0657 4.91605 12.0194C4.91605 12.9727 5.09025 13.8745 5.43859 14.7252C5.6454 15.2297 5.89972 15.6955 6.20161 16.1231L2 20.3187L3.66966 21.986L7.88406 17.7775C8.26242 18.0351 8.67321 18.2579 9.11605 18.4459C9.98075 18.813 10.9354 18.9966 11.9804 18.9966C13.0257 18.9966 13.9804 18.8096 14.845 18.4362Z" fill="black"/>
</g>
</svg>

<svg xmlns="http://www.w3.org/2000/svg" width="24" height="24" fill="none" viewBox="0 0 24 24">
    <path fill="#000" fill-rule="evenodd" d="m14.438 7.898-6.46 6.452a5.15 5.15 0 0 1-.564-2.369q-.001-.987.337-1.865a4.7 4.7 0 0 1 .94-1.528q.6-.646 1.441-1.024a4.5 4.5 0 0 1 1.848-.377 4.44 4.44 0 0 1 2.458.711m-.57 8.538a4.5 4.5 0 0 1-1.849.377 4.44 4.44 0 0 1-2.457-.711l6.46-6.452q.126.242.226.504.339.88.339 1.865 0 .987-.339 1.866a4.7 4.7 0 0 1-.939 1.526q-.6.648-1.441 1.025m.977 2a7.1 7.1 0 0 0 2.245-1.517 6.8 6.8 0 0 0 1.47-2.232q.524-1.276.524-2.706a7.07 7.07 0 0 0-1.286-4.104L22 3.681l-1.67-1.667-4.214 4.209a7 7 0 0 0-1.232-.669q-1.298-.55-2.865-.55t-2.864.56A7.1 7.1 0 0 0 6.91 7.08a6.8 6.8 0 0 0-1.471 2.232 7.1 7.1 0 0 0-.523 2.706 7.07 7.07 0 0 0 1.286 4.104L2 20.32l1.67 1.667 4.214-4.209q.568.386 1.232.669 1.298.55 2.864.55 1.568 0 2.865-.56" clip-rule="evenodd" opacity=".9"/>
</svg>
